X:1
T:Macht Hoch die Tür, 88.88.88.86
T:Macht Hoch die Tür, 88.88.88.86
T:Johannes Anastasius Freylinghausen, 1704
T:Public Domain Courtesy of the Cyber Hymnal™
C:Johannes Anastasius Freylinghausen, 1704
Z:Public Domain
Z:Courtesy of the Cyber Hymnal™
%%score ( 1 2 ) ( 3 4 )
L:1/8
Q:1/4=130
M:6/4
K:F
V:1 treble 
V:2 treble 
V:3 bass 
V:4 bass 
V:1
 [CA]2 | [Fc]4 [DB]2 [CA]4 [CG]2 | (F2 G2) [CA]2 [EG]4 [Fc]2 | [DB]4 [B,B]2 [CA]4 [CA]2 | %4
 (G2 F2) [CG]2 [A,F]4 [CA]2 | [CG]4 [CG]2 ([CA]2 [D=B]2) [Ec]2 | (c2 d2) [D=B]2 [Ec]4 G2 | %7
 [FA]4 [EG]2 A2 =B2 [Ec]2 | (c2 d2) [D=B]2 [Ec]4 [Fc]2 | [Fd]4 [Fc]2 [Fd]4 [Fc]2 | %10
 (d2 c2) [DB]2 [FA]4 [Fc]2 | [Fd]4 [Ec]2 [Fd]4 [Fc]2 | (d2 c2) [DB]2 [FA]4 [Cc]2 | %13
 [DF]4 [DF]2 B4 [FA]2 | G6- [EG]4 [Fc]2 | B4 [FA]2 [EG]2 [DF]2 [EG]2 | [CF]6- [CF]4 |] %17
V:2
 x2 | x12 | C4 x8 | x12 | C4 x8 | x12 | F4 x4 G2 x2 | x6 F4 x2 | F4 x8 | x12 | F4 x8 | x12 | %12
 F4 x8 | x6 (D2 E2) x2 | F2 E2 D2 x6 | (D2 E2) x8 | x10 |] %17
V:3
 F,2 | [F,,A,]4 [B,,F,]2 F,4 [C,E,]2 | A,4 [F,A,]2 [C,C]4 [A,,C]2 | [B,,F,]4 [D,F,]2 F,4 [F,,F,]2 | %4
 (E,2 F,2) [C,E,]2 [F,,F,]4 F,2 | [E,G,]4 [E,G,]2 G,4 A,2 | [F,A,]4 G,2 [C,G,]4 [C,C]2 | %7
 [F,C]4 [C,C]2 [F,C]2 [D,D]2 A,2 | A,4 G,2 [C,G,]4 [A,C]2 | B,4 [F,A,]2 B,4 [A,C]2 | %10
 B,2 [F,A,]2 [G,B,]2 [F,C]4 [F,A,]2 | [D,A,]4 [A,,A,]2 A,4 [F,A,]2 | %12
 [B,,B,]2 [F,A,]2 [G,B,]2 [F,C]4 [E,G,]2 | [D,A,]4 [B,,B,]2 [G,,B,]4 [F,,C]2 | %14
 [C,C]6- [C,C]4 [F,A,]2 | [G,B,]4 [F,C]2 [C,C]4 [C,C]2 | [F,,A,]6- [F,,A,]4 |] %17
V:4
 F,2 | x6 F,4 x2 | (D,2 E,2) x8 | x6 F,4 x2 | C,4 x4 F,2 x2 | x6 (F,2 D,2) A,2 | x4 G,2 x6 | %7
 x10 A,2 | (F,2 D,2) G,2 x6 | B,4 B,4 x4 | B,2 x10 | x6 (D,2 E,2) x2 | x12 | x12 | x12 | x12 | %16
 x10 |] %17

